findly-builder/apps/searchassist/src/assets/icons/landing/analysis.svg

<svg width="33" height="33" viewBox="0 0 33 33" fill="none" xmlns="http://www.w3.org/2000/svg">
<path d="M27.5 30.9375H5.5V2.0625H20.625L27.5 8.9375V30.9375Z" fill="#85B7FE"/>
<path d="M26.4687 9.625H19.9375V3.09375L26.4687 9.625Z" fill="#E7F1FF"/>
<path d="M10.9015 25.1041L9.72314 24.396L14.3005 16.7661L18.4255 20.8911L22.0981 14.771L23.2765 15.4791L18.6991 23.109L14.5741 18.984L10.9015 25.1041Z" fill="#07377F"/>
<path d="M14.4375 16.5C14.0728 16.5 13.7231 16.6449 13.4652 16.9027C13.2074 17.1606 13.0625 17.5103 13.0625 17.875C13.0625 18.2397 13.2074 18.5894 13.4652 18.8473C13.7231 19.1051 14.0728 19.25 14.4375 19.25C14.8022 19.25 15.1519 19.1051 15.4098 18.8473C15.6676 18.5894 15.8125 18.2397 15.8125 17.875C15.8125 17.5103 15.6676 17.1606 15.4098 16.9027C15.1519 16.6449 14.8022 16.5 14.4375 16.5ZM10.3125 23.375C9.94783 23.375 9.59809 23.5199 9.34023 23.7777C9.08237 24.0356 8.9375 24.3853 8.9375 24.75C8.9375 25.1147 9.08237 25.4644 9.34023 25.7223C9.59809 25.9801 9.94783 26.125 10.3125 26.125C10.6772 26.125 11.0269 25.9801 11.2848 25.7223C11.5426 25.4644 11.6875 25.1147 11.6875 24.75C11.6875 24.3853 11.5426 24.0356 11.2848 23.7777C11.0269 23.5199 10.6772 23.375 10.3125 23.375ZM18.5625 20.625C18.1978 20.625 17.8481 20.7699 17.5902 21.0277C17.3324 21.2856 17.1875 21.6353 17.1875 22C17.1875 22.3647 17.3324 22.7144 17.5902 22.9723C17.8481 23.2301 18.1978 23.375 18.5625 23.375C18.9272 23.375 19.2769 23.2301 19.5348 22.9723C19.7926 22.7144 19.9375 22.3647 19.9375 22C19.9375 21.6353 19.7926 21.2856 19.5348 21.0277C19.2769 20.7699 18.9272 20.625 18.5625 20.625ZM22.6875 13.75C22.3228 13.75 21.9731 13.8949 21.7152 14.1527C21.4574 14.4106 21.3125 14.7603 21.3125 15.125C21.3125 15.4897 21.4574 15.8394 21.7152 16.0973C21.9731 16.3551 22.3228 16.5 22.6875 16.5C23.0522 16.5 23.4019 16.3551 23.6598 16.0973C23.9176 15.8394 24.0625 15.4897 24.0625 15.125C24.0625 14.7603 23.9176 14.4106 23.6598 14.1527C23.4019 13.8949 23.0522 13.75 22.6875 13.75Z" fill="#FFDA2D"/>
</svg>

<svg width="33" height="33" fill="none" xmlns="http://www.w3.org/2000/svg"><path d="M27.5 30.938h-22V2.063h15.125L27.5 8.936v22Z" fill="#85B7FE"/><path d="M26.469 9.625h-6.532V3.094l6.532 6.531Z" fill="#E7F1FF"/><path d="m10.902 25.104-1.179-.708 4.577-7.63 4.125 4.125 3.673-6.12 1.178.708-4.577 7.63-4.125-4.125-3.672 6.12Z" fill="#07377F"/><path d="M14.438 16.5a1.375 1.375 0 1 0 0 2.75 1.375 1.375 0 0 0 0-2.75Zm-4.126 6.875a1.375 1.375 0 1 0 0 2.75 1.375 1.375 0 0 0 0-2.75Zm8.25-2.75a1.375 1.375 0 1 0 0 2.75 1.375 1.375 0 0 0 0-2.75Zm4.125-6.875a1.375 1.375 0 1 0 0 2.75 1.375 1.375 0 0 0 0-2.75Z" fill="#FFDA2D"/></svg>
